X:1
T:James Gibb editions
T:Reminiscere - Isaac
T:#
%%score [ 1 2 3 4 ]
L:1/8
Q:1/4=96
M:none
K:F
V:1 treble nm="Alto" snm="A"
V:2 treble-8 nm="Tenor I" snm="T I"
V:3 treble-8 nm="Tenor II" snm="T II"
V:4 bass nm="Bass" snm="B"
V:1
"^Reminiscere miserationum tuarum""^Heinrich Isaac\n(c.1450-1517)" D2 (F2 D2) (E2 F2) F2 F4 || %1
w: Re- mi\- * ni\- * sce- re|
[M:4/4][Q:1/4=96] F4 (F4 | D4) F4 | F4 (F2 A2- | AG F4 E2) |[M:4/4] F8 | z4 F4 | (F4 D3 E | %8
w: Mi- se\-|* ra-|ti- o\- *||num|tu-|a\- * *|
 F4 F2 A2- | AG G4 ^F2) | G4 z4 | E4 (E2 G2- | G2 FE F4) | E8 | z4 F4 | (F4 D4) | (D4 F4) | %17
w: ||rum|Do- mi\- *||ne,|et|mi\- *|se\- *|
 F6 (A2- | AG F4) E2 | (F3 E F2) (G2- | GF F4 E2) | F8 | z4 F4 | (F4 D4) | (F4 G4) | F4 (G2 F2- | %26
w: ri- cor\-|* * * di-|ae * * tu\-||ae,|quae|a *|sae\- *|cu- lo *|
 F2 ED C4) | z2 (D3 EFG | E2 D2 F4) | z4 C4 | (D2 F4 E2) | F4 z4 | C4 (D4 | F4 F4 | D4 F4 | %35
w: |sunt: * * *||ne|un\- * *|quam|do- mi\-|* nen-|tur i-|
 F4 (E4 | F2 G4 ^F2) | G4 z4 | G4 F2 A2- | AG G4 ^F2) | G4 z4 | E4 (F4 | G4) (G2 A2- | A2 GF G4) | %44
w: ni- mi\-||ci|no\- * *||stri.|Li- be\-|* ra *||
 F4 z4 | F4 F4 | (G4 F4) | (D3 E F2 G2- | GF F4 E2) | F4 z2 F2 | (F4 E4 | F4) D4 | (D3 E F2 G2- | %53
w: nos|De- us|Is\- *|ra\- * * *||el ex|o\- *|* mni-|bus * * *|
 G2 FE D4 | C8 | z4 D4 | (F4 D4 | F4) E4 | F2 G4 ^F2) | G4 z4 | (G4 F2 A2- | A2 G2 E2 G2- | %62
w: ||an-|gu\- *|* sti\-||is|no\- * *||
 GF E4 D2) | E8- | E8 || %65
w: |stris.||
[Q:1/4=144] (A2 G2) (G2 A2) A2 A2 A2 A2 A2 A2 (A2 G2) (G2 B2) B2 (A2 B2) A4 |[M:4/4] (A6 GF | %67
w: Ad * te * Do- mi- ne le- va- vi a\- * ni\- * mam me\- * am|De\- * *|
 G2 A4 G2) | A4 z4 | z8 | A4 A4 | z8 | A4 A4 |[M:4/4] z4 A4 | A4 A4 | z2 A2 A2 B2 | %76
w: |us||me- us||in te|con-|fi- do,|non e- ru-|
[Q:1/4=94] (c3[Q:1/4=92] B[Q:1/4=91] A2[Q:1/4=89] G2- |[Q:1/4=87] G2[Q:1/4=85] F4[Q:1/4=82] E2) | %78
w: be\- * * *||
[Q:1/4=82] F8- | F8 |] x8 |] %81
w: scam.|||
V:2
 x16 ||[M:4/4] z4 (F4 | B4) B2 (B2- | B2 AG F2) (f2- | fe) d2 c4 |[M:4/4][K:treble-8] z2 (B4 A2) | %6
w: |Mi\-|* se- ra\-|* * * * ti\-|* * o- num|tu\- *|
 (B6 AG | F4 B3 c | d2 c3 d e2 | d2 c2) d4- | d4 z4 | c6 (c2 | e4 d4) | G2 A4 G2 | %14
w: a\- * *|||* * rum||Do- mi\-||ne, et mi|
 (F2 D2) d2 (d2- | dcBA) B4 | G4 z4 | z2 A4 GF | F4 G4 | F4 z2 (G2 | A2 B2) c4 | z2 c2 (A3 B | %22
w: se\- * ri- cor|* * * * di-|ae,|mi- se- ri-|cor- di-|ae tu\-|* * ae,|quae a *|
 c2) d4 c2 | (d3 c A2 B2- | BA A4 G2 | A2 GF E2 D2 | F2 G2 E4) | (DEFG A2 B2 | c2 F2) (F3 G) | %29
w: * sae- cu-|lo * * *||||sunt: * * * * *|* * ne *|
 (A3 G AB c2- | c2 B2) c4- | c8 | z8 | z2 d4 (cB) | (B2 AG) A4 | z4 z2 (A2- | AB) c2 d4 | d8 | %38
w: un\- * * * *|* * quam|||do- mi\- *|nen\- * * tur|i\-|* * ni- mi-|ci|
 z2 (d4 cB | cBAG A4) | (G4 d4) | (e4 d4) | (B2 c2 B2 A2- | A2 B2) G4 | A4 z4 | d6 d2 | d4 (d4- | %47
w: no\- * *||stri. *|Li\- *|be\- * * *|* * ra|nos|De- us|Is- ra\-|
 d2 g2 f2 ed | c2 B2) c4 | z2 c2 (c4 | B4) c4 | (A4 F4 | f4 d2 e2 | c4) z2 d2 | (e2 e4 dc | %55
w: |* * el|ex o\-|* mni-|bus *||* an|gu\- * * *|
 dcBA) B4 | A8- | A4 z2 (e2 | d2 c2 d4- | d2 G2 B3 c | d2 e2 A3 B | c2 d2 G2 c2 | B2 c2 A4) | A8- | %64
w: * * * * sti-|is|* no\-||||||stris.|
 A8 || [xx]30 z6 x2 | x8 |[M:4/4][K:treble-8] (A6 c2- | c2 BA B4) | A4 z2 (e2- | e2 dc) d4 | %71
w: |||De\-\- *||us me\-|* * * us,|
 (c3 d e2) f2- | f2 e2 (f2 ed | c3 d e2 f2- |[M:4/4][K:treble-8] f2 e4 d2) | e8 | z2 e2 e2 e2 | %77
w: in * * te|* con- fi\- * *|||do,|non e- ru-|
 (f2 g2 f2 e2 | d2 B2 c4) | c8- |] c8 |] %81
w: be\- * * *||scam.||
V:3
 x16 ||[M:4/4] z4 F4 | (F4 D4) | (D3 E F3 G | A2) B2 G4 |[M:4/4][K:treble-8] F4 z4 | F4 (F4 | %7
w: |Mi-|se\- *|ra\- * * *|* ti- o-|num|tu- a\-|
 D3 E F2 G2 | A3 G AB c2 | B2 G2 A4) | G4 z4 | G4 (A2 G2- | G2 c4 =B2) | (c6 _B2 | A4) z4 | %15
w: |||rum|Do- mi\- *||ne, *||
 z2 (d3 cBA | B4 A4) | z4 z2 A2- | A2 B2 c4 | A3 G (A2 B2) | (F4 G4) | F4 z4 | F4 (F4 | %23
w: et * * *||mi\-|* se- ri-|cor- di- ae *|tu\- *|ae,|quae a|
 D3 E F2 G2 | D2) d4 ^c2 | (d4 !courtesy!=c2 d2 | B4 A4) | z2 (A4 F2 | G2 F2 D4 | E4) z2 E2 | %30
w: |* sae- cu-|lo * *||sunt: *||* ne|
 (F4 G4) | F4 z2 G2 | A4 B4 | A8 | z4 z2 (d2- | d2 cB) (c3 B | A2 G2) A4 | G8 | (G4 D2 F2- | %39
w: un\- *|quam do-|mi- nen-|tur|i|* * * ni\- *|* * mi-|ci|no\- * *|
 F2 G2) D4 | z2 (d4 cB) | (cBAG) A4 | z2 (G4 FE | D2 d4 c2 | d4) z4 | A4 A4 | (B4 A4) | (B4 A2 G2 | %48
w: * * stri.|Li\- * *|be\- * * * ra|nos * *|||De- us|Is\- *|ra\- * *|
 A2 B2 G4) | F4 z2 F2 | (F4 G4) | F6 (B2- | B2 AG A2 G2- | G2 c4 =B2 | c6 BA | BAGF G4 | %56
w: |el ex|o\- *|mni- bus|||||
 F2 D2) (d4- | d2 cB) (c3 B | A2) G2 A4 | z2 (G2 G3 A | B2 c2 d3 c | A2 B2 c3 B | G2 A2 F4) | E8- | %64
w: * * an\-|* * * gu\- *|* sti- is|no\- * *||||stris.|
 E8 || [xx]30 z6 x2 | x8 |[M:4/4][K:treble-8] z8 | z8 | (A6 GF | G2 A4 G2) | A4 z4 | A4 A4 | z8 | %74
w: |||||De\- * *||us|me- us,||
[M:4/4][K:treble-8] A4 A2 A2 | c4 c4 | z2 c2 c2 B2 | (A2 G2 c3 B | A2 F2 G4) | F8- |] F8 |] %81
w: in te con-|fi- do,|non e- ru-|be\- * * *||scam.||
V:4
 x16 ||[M:4/4] (F,,4 B,,4) | B,,4 B,,4 | (B,,3 C,) (D,3 E, | F,2 B,,2 C,4 |[M:4/4] D,2 B,,2 F,4) | %6
w: |Mi\- *|se- ra-|ti\- * o\- *|||
 B,,8 | z2 B,,4 (G,,2 | D,2 F,3 E, C,2 | D,2 E,2 D,4) | G,,4 z4 | C,6 (C,2- | C,4 D,4) | C,8 | %14
w: num|tu- a\-|||rum|Do- mi\-||ne,|
 z4 D,4 | (D,4 G,,4) | (G,,4 D,4- | D,4) D,2 (F,2- | F,E,) D,2 C,4 | z2 (F,4 _E,2) | (D,4 C,4) | %21
w: et|mi\- *|se\- *|* ri- cor\-|* * di- ae|tu\- *|ae, *|
 z2 F,,2 (F,,3 G,, | A,,2) (B,,4 A,,2 | B,,3 C, D,2 G,,2 | D,2 F,2) E,4 | D,4 z2 (D,2- | %26
w: quae a *|* sae\- *||* * cu-|lo sunt:|
 D,2 G,,2 A,,4) | z2 (D,6 | C,2 D,2 B,,4 | A,,4) z2 A,,2 | (D,4 C,4) | F,,2 F,4 E,2 | %32
w: |sunt:||* ne|un\- *|quam do- mi-|
 (F,2 A,2 G,4) | D,8- | D,8 | (D,4 A,,4) | (D,2 E,2) D,4 | G,,8 | z8 | z4 D,4 | G,,8 | (C,4 D,4 | %42
w: nen\- * *|tur||i\- *|ni\- * mi-|ci:||Li-|be-|ra *|
 _E,3 F, G,2 D,2 | F,2 G,2 _E,4) | D,4 z4 | D,4 (D,4 | G,,4 D,4) | z2 (G,,2 D,2) E,2 | %48
w: ||nos|De- us||Is\- * ra-|
 (F,2 D,2 C,4) | z2 (F,3 E,D,C, | D,4 C,4) | D,6 B,,2 | B,,4 z2 (C,2- | C,B,, C,2 G,,4) | %54
w: el * *|ex * * *||o- mni-|bus de||
 (C,3 D, E,2) F,2 | (D,4 G,,4 | D,8- | D,4) z2 C,2 | D,2 E,2 (D,4 | G,,4) z2 (G,2- | %60
w: o\- * * mni-|bus *||* an-|gu- sti- is|* no\-|
 G,F, E,2 D,2 F,2- | F,2 _E,D, C,3 D, | _E,2 C,2 D,4) | A,,8- | A,,8 || [xx]30 z6 x2 | x8 | %67
w: |||stris.||||
[M:4/4] z8 | z8 | (A,,6 C,2- | C,2 B,,A,, B,,4) | (A,,3 =B,, C,2) (D,2- | D,2 C,2) D,4 | %73
w: ||De\- *||us * * me\-|* * us,|
 (A,,3 =B,, C,2) D,2- |[M:4/4] D,2 C,2 D,4 | A,,8 | z2 A,2 A,2 G,2 | (F,2 E,2 F,2 C,2 | D,4 C,4) | %79
w: in * * te|* con- fi-|do,|non e- ru-|be\- * * *||
 F,,8- |] F,,8 |] %81
w: scam.||

